!!!COM:	Pierre de la Rue
**kern	**kern
*part2	*part1
*staff2	*staff1
*clefF4	*clefGv2
*k[b-]	*k[b-]
*M2/1	*M2/1
=1-	=1-
1FF	[0F
2FF	.
4GG	.
4AA	.
=2	=2
2BB-	1F]
1AA	.
.	[1A
4GG	.
4FF	.
=3	=3
1C	2A]
.	4G
.	4F
2C	[1G
2BB-	.
=4	=4
2C	1G]
1E-X	.
.	1B-
[2D	.
=5	=5
2D]	1.A
2C	.
2D	.
[2F	4G
.	4F
=6	=6
2F]	1.A
4E	.
4D	.
1C	.
.	4B-
.	4c
=7	=7
2BB-	1d
1F	.
.	2r
2E	[2c
=8	=8
1D	2c]
.	2B-
2r	1A
[2C	.
=9	=9
2C]	2r
2BB-	1G
1AA	.
.	2F
=10	=10
1GG	1E
2r	1D
2BB-	.
=11	=11
2C	2r
2D	2F
2E	2G
[2D	2A
=12	=12
2D]	2B-
2C	1A
1BB-	.
.	2G
=13	=13
2AA	2A
2F	1d
2G	.
2A	2c
=14	=14
2B-	4d
.	4c
1A	4B-
.	4A
.	1B-
2G	.
=15	=15
2A	1A
1F	.
.	2r
2D	2F
=16	=16
1E	1G
2F	1A
2D	.
=17	=17
2.G	1B-
4F	.
4E	1c
4D	.
[2C	.
=18	=18
2C]	1F
1F	.
.	1G
2E	.
=19	=19
1F	1F
1FF	2r
.	2C
=20	=20
2r	2D
2GG	1E
1AA	.
.	[2F
=21	=21
1BB-	4F]
.	4D
.	4G
.	4F
1C	4E
.	4D
.	[2C
=22	=22
1FF	2C]
.	1F
1GG	.
.	2E
=23	=23
0FF	0F
==	==
*-	*-
